X:1
T:I saw a maiden
N:Book: Singing Together, BBC Broadcasts to Schools, Autumn Term, 1958
From 'University Carol Books', Book 2.
Q:1/4=120     %Tempo
M:4/4     %Meter
L:1/8     %
K:F 
F2 GF E2 c2 |B2 cB A3
w:I saw a maid-en sit-ting and sing,
G|F2 (GF) E3 c |[M:2/4][L:1/16] d2c2 =B4 |[M:3/4][L:1/8] c4
w:She lull'd her_ child a lit-tle Lord-ing
c2 |d4 G2 |c4 F2 |B2 A2 G2 |(AB) c2
w:Lul-lay, Lul-lay, my dear son my sweet--ing.
F2 |G4 A2 |B4 d2 |[M:4/4][L:1/8] c2 F4
w: Lul-lay, Lul-lay, My dear son,
(BA) |G2 F2 G4 |F8 |
w:my_ own dear dar-ling.